eperusteet-opintopolku-app/v2/public/img/icons/kommentit.svg

<svg width="20" height="20" xmlns="http://www.w3.org/2000/svg">
    <path d="M18 0H2C.9 0 0 .9 0 2v12a2 2 0 002 2h3v4l5-4h8c1.1 0 2-.9 2-2V2c0-1.1-.9-2-2-2zm0 14H9l-2 2v-2H2V2h16v12zM9 9h7v2H9V9zM4 5h12v2H4V5z"/>
</svg>

<?xml version="1.0" encoding="UTF-8"?>
<svg width="20px" height="20px" viewBox="0 0 20 20" version="1.1" xmlns="http://www.w3.org/2000/svg" xmlns:xlink="http://www.w3.org/1999/xlink">
    <!-- Generator: sketchtool 58 (101010) - https://sketch.com -->
    <title>D645259C-17CC-41BA-963F-B576B65B782E@2x</title>
    <desc>Created with sketchtool.</desc>
    <defs>
        <path d="M18,0 L2,0 C0.9,0 0,0.9 0,2 L0,14 C1.3527075e-16,15.1045695 0.8954305,16 2,16 L5,16 L5,16 L5,20 L10,16 L18,16 C19.1,16 20,15.1 20,14 L20,2 C20,0.9 19.1,0 18,0 Z M18,14 L9,14 L7,16 L7,14 L2,14 L2,2 L18,2 L18,14 Z M9,9 L16,9 L16,11 L9,11 L9,9 Z M4,5 L16,5 L16,7 L4,7 L4,5 Z" id="path-1"></path>
    </defs>
    <g id="ASSETIT" stroke="none" stroke-width="1" fill="none" fill-rule="evenodd">
        <g id="ASSETIT---IKONIT" transform="translate(-289.000000, -196.000000)">
            <g id="Ikonit/Kommentit" transform="translate(289.000000, 196.000000)">
                <g>
                    <mask id="mask-2" fill="white">
                        <use xlink:href="#path-1"></use>
                    </mask>
                    <use id="Mask" fill="#000000" fill-rule="nonzero" transform="translate(10.000000, 10.000000) scale(-1, 1) translate(-10.000000, -10.000000) " xlink:href="#path-1"></use>
                    <g id="Värit/Tumma-harmaa" mask="url(#mask-2)" fill="#575757">
                        <g transform="translate(10.000000, 10.000000) scale(-1, 1) translate(-10.000000, -10.000000) " id="Rectangle">
                            <rect x="0" y="0" width="20" height="20"></rect>
                        </g>
                    </g>
                </g>
            </g>
        </g>
    </g>
</svg>
